assets/images/table-arrow.svg

<svg fill="none" height="16" viewBox="0 0 32 16" width="32" xmlns="http://www.w3.org/2000/svg"><path d="m23.3 15.3c-.1833-.1833-.2793-.4166-.288-.7-.0087-.2833.079-.5166.263-.7l4.9-4.89995h-27.175c-.28333 0-.520996-.096-.712996-.288-.1920004-.192-.28766721-.42933-.28700054-.712 0-.28333.09600014-.521.28800054-.713.192-.192.429333-.28767.711996-.287h27.175l-4.9-4.9c-.1833-.18333-.271-.41667-.263-.7s.104-.516668.288-.700002c.1833-.183333.4167-.274999.7-.274999s.5167.091666.7.274999l6.6 6.600002c.1.08333.171.18767.213.313s.0627.25433.062.387c0 .13333-.0207.25833-.062.375s-.1123.225-.213.325l-6.6 6.59995c-.1833.1834-.4167.275-.7.275s-.5167-.0916-.7-.275z" fill="#3f261a"/></svg>

<svg width="32" height="16" viewBox="0 0 32 16" fill="none" xmlns="http://www.w3.org/2000/svg">
<path d="M23.3 15.3C23.1167 15.1167 23.0207 14.8834 23.012 14.6C23.0033 14.3167 23.091 14.0834 23.275 13.9L28.175 9.00005H1C0.71667 9.00005 0.479004 8.90405 0.287004 8.71205C0.0950036 8.52005 -0.000663206 8.28272 3.4602e-06 8.00005C3.4602e-06 7.71672 0.0960036 7.47905 0.288004 7.28705C0.480004 7.09505 0.717337 6.99938 1 7.00005H28.175L23.275 2.10005C23.0917 1.91672 23.004 1.68338 23.012 1.40005C23.02 1.11672 23.116 0.883382 23.3 0.700048C23.4833 0.516715 23.7167 0.425049 24 0.425049C24.2833 0.425049 24.5167 0.516715 24.7 0.700048L31.3 7.30005C31.4 7.38338 31.471 7.48772 31.513 7.61305C31.555 7.73838 31.5757 7.86738 31.575 8.00005C31.575 8.13338 31.5543 8.25838 31.513 8.37505C31.4717 8.49172 31.4007 8.60005 31.3 8.70005L24.7 15.3C24.5167 15.4834 24.2833 15.575 24 15.575C23.7167 15.575 23.4833 15.4834 23.3 15.3Z" fill="#3F261A"/>
</svg>
